X: 11803
T: Ellen O'Grady
R: slip jig
M: 9/8
K: Amixolydian
eaa efg fed|eaa efg ~f3|eaa efg fed|~g3 ecA Bcd|
eaa efg fed|eaa efg ~f3|eaa efg fed|~g3 ecA Bcd|
~e3 Bcd cBA|~e3 Bcd ~c3|~e3 Bcd cBA|a^gf ecA Bcd|
~e3 Bcd cBA|~e3 Bcd ~c3|ef^g agf efg|a^ga B2c dcB||

